icons/zodiac-libra.svg

<svg width="24" height="24" viewBox="0 0 24 24" fill="none" xmlns="http://www.w3.org/2000/svg">
<path fill-rule="evenodd" clip-rule="evenodd" d="M12 4C8.68629 4 6 6.68629 6 10C6 12.7165 7.80612 15.0138 10.2852 15.7517C10.7093 15.8779 11 16.2677 11 16.7101V17C11 17.5523 10.5523 18 10 18H5C4.44772 18 4 17.5523 4 17C4 16.4477 4.44772 16 5 16H6.70863C5.04786 14.5345 4 12.3902 4 10C4 5.58172 7.58172 2 12 2C16.4183 2 20 5.58172 20 10C20 12.3902 18.9521 14.5345 17.2914 16H19C19.5523 16 20 16.4477 20 17C20 17.5523 19.5523 18 19 18H14C13.4477 18 13 17.5523 13 17V16.7101C13 16.2677 13.2907 15.8779 13.7148 15.7517C16.1939 15.0138 18 12.7165 18 10C18 6.68629 15.3137 4 12 4ZM4 20C4 19.4477 4.44772 19 5 19H19C19.5523 19 20 19.4477 20 20C20 20.5523 19.5523 21 19 21H5C4.44772 21 4 20.5523 4 20Z" fill="black"/>
</svg>

<svg
  width="24"
  height="24"
  viewBox="0 0 24 24"
  xmlns="http://www.w3.org/2000/svg"
>
  <path
    fill-rule="evenodd"
    clip-rule="evenodd"
    d="M12 4a6 6 0 0 0-1.715 11.752 1 1 0 0 1 .715.958V17a1 1 0 0 1-1 1H5a1 1 0 1 1 0-2h1.709a8 8 0 1 1 10.583 0H19a1 1 0 1 1 0 2h-5a1 1 0 0 1-1-1v-.29a1 1 0 0 1 .715-.958A6 6 0 0 0 12 4zM4 20a1 1 0 0 1 1-1h14a1 1 0 1 1 0 2H5a1 1 0 0 1-1-1z"
  />
</svg>
